X:1
L:1/16
M:3/8
K:Bb
 (Bd) | F2 (Bd) F2 | [fBD]4 dB | (ce) F2 (ce) | Bd F2 Bd | F2 Bd F2 | [fBD]4 dB | ce FAcA | B4 :: 
 b2 | abc'afa | ac'd'e'f'd' | f'e'd'c'ba | b>ab/ d'bfb | abc'bfa | babc'd'b | c'd'e'd'bc' | 
 d'2b2 ::[K:Eb]{e} c'2 | b2(b=abg) | e4 g2 | B4 (cd) | (ed)(eg)(ae') | b2(babg) | e2(ed)(eg) | 
 B2>c2d2 | f2e2 :|
